X:3
T:Miss Gunnings. Ru1.003
%%VWML:RutherfordVol1-2248-p2-0p2
Z:Transcription by Village Music Project, Steve Mansfield July 2015
F:http://www.village-music-project.org.uk/
F:http://www.vwml.org/record/RutherfordVol1/2248/p2
L:1/8
W:The first Cu. Leads through the 2d Cu. and without side
W:The 3d Cu. .| Then Lead through the 2d Cu. & cast up To the
W:Top :| Cross over two Cu. .|. Lead up to the Top Foot it and
W:cast off :||: Hands round all six .||| Right Hand and
W:Left at Top :|||:
Q:2/4=80
K:A
c2 BA G/A/B ED | CEAc BEE2 | c2BA G/A/B Ed | c/d/e EB cAA2 :|
|: aAaA aAA2 | G/A/B TB2 G/A/B TB2 | aAaA aA AB | c2BA EAA2 :|
|: ceTfe ceTfe | fedc BETE2 | cefe cefe | fefg aA A2 :|
T:Double Entendre. Ru1.004
B:Rutherford's Country Dances Vol 1, 1756
Z:village music project, Steve Mansfield July 2015
M:2/4
L:1/8
W:Cast off one Cu. and turn your Partner .|
W:Cast off Again and turn your Partner :| Lead up to
W:the Top Foot it and cast off .|. Right Hand
W:and Left with the Top Couple :|
Q:2/4=80
K:G
|:B2 dB | c2 Ac | B2 dB | c2 A2 |
B2 dB | cdef | gedc | B2 G2 :|
|: B2 GB | c2 ec | B2 GB | AFED |
g2 dB | cdef | gedc | B2 G2 :|
